Resources/Public/Icons/solid/wave-square.svg

<svg xmlns="http://www.w3.org/2000/svg" viewBox="0 0 640 512"><!--! Font Awesome Free 6.6.0 by @fontawesome - https://fontawesome.com License - https://fontawesome.com/license/free (Icons: CC BY 4.0, Fonts: SIL OFL 1.1, Code: MIT License) Copyright 2024 Fonticons, Inc. --><path d="M128 64c0-17.7 14.3-32 32-32l160 0c17.7 0 32 14.3 32 32l0 352 96 0 0-160c0-17.7 14.3-32 32-32l128 0c17.7 0 32 14.3 32 32s-14.3 32-32 32l-96 0 0 160c0 17.7-14.3 32-32 32l-160 0c-17.7 0-32-14.3-32-32l0-352-96 0 0 160c0 17.7-14.3 32-32 32L32 288c-17.7 0-32-14.3-32-32s14.3-32 32-32l96 0 0-160z"/></svg>

<svg xmlns="http://www.w3.org/2000/svg" viewBox="0 0 640 512"><!--! Font Awesome Free 6.5.1 by @fontawesome - https://fontawesome.com License - https://fontawesome.com/license/free (Icons: CC BY 4.0, Fonts: SIL OFL 1.1, Code: MIT License) Copyright 2023 Fonticons, Inc. --><path d="M128 64c0-17.7 14.3-32 32-32H320c17.7 0 32 14.3 32 32V416h96V256c0-17.7 14.3-32 32-32H608c17.7 0 32 14.3 32 32s-14.3 32-32 32H512V448c0 17.7-14.3 32-32 32H320c-17.7 0-32-14.3-32-32V96H192V256c0 17.7-14.3 32-32 32H32c-17.7 0-32-14.3-32-32s14.3-32 32-32h96V64z"/></svg>
